X: 27838
T: Mother Hughes's Goose
R: reel
M: 4/4
K: Dmajor
ADDE F2 FG|Ad=cA BGAG|FDDE F2 FG|1 Ad=cA G2 AG:|2 Ad=cA G4||
Add=c AGFG|Adde f3 a|ge e2 fded|cABc d2 cd|
eaag efed|cAdc AG G2|EFGE A2 AG|EFGE FD D2|
e2 ed cA A2|f2 fa ge e2|fgaf gfed|cded cA A2|
e2 ed cA A2|f2 fa ge e2|fgaf gfed|cAGE D4||

